static/fa/svgs/regular/circle-pause.svg

<svg xmlns="http://www.w3.org/2000/svg" viewBox="0 0 512 512"><!--! Font Awesome Free 6.1.1 by @fontawesome - https://fontawesome.com License - https://fontawesome.com/license/free (Icons: CC BY 4.0, Fonts: SIL OFL 1.1, Code: MIT License) Copyright 2022 Fonticons, Inc.--><path d="M200 160c-13.2 0-24 10.8-24 24v144c0 13.3 10.8 24 24 24s24-10.7 24-24V184c0-13.2-10.7-24-24-24zm112 0c-13.2 0-24 10.8-24 24v144c0 13.25 10.75 24 24 24s24-10.75 24-24V184c0-13.2-10.7-24-24-24zM256 0C114.6 0 0 114.6 0 256s114.6 256 256 256 256-114.6 256-256S397.4 0 256 0zm0 464c-114.7 0-208-93.31-208-208S141.3 48 256 48s208 93.31 208 208-93.3 208-208 208z"/></svg>

<svg xmlns="http://www.w3.org/2000/svg" viewBox="0 0 512 512"><!--! Font Awesome Free 6.1.1 by @fontawesome - https://fontawesome.com License - https://fontawesome.com/license/free (Icons: CC BY 4.0, Fonts: SIL OFL 1.1, Code: MIT License) Copyright 2022 Fonticons, Inc. --><path d="M200 160C186.8 160 176 170.8 176 184v144C176 341.3 186.8 352 200 352S224 341.3 224 328v-144C224 170.8 213.3 160 200 160zM312 160C298.8 160 288 170.8 288 184v144c0 13.25 10.75 24 24 24s24-10.75 24-24v-144C336 170.8 325.3 160 312 160zM256 0C114.6 0 0 114.6 0 256s114.6 256 256 256s256-114.6 256-256S397.4 0 256 0zM256 464c-114.7 0-208-93.31-208-208S141.3 48 256 48s208 93.31 208 208S370.7 464 256 464z"/></svg>
